X:1
T: Mourne Mountains
C:
R:Jig
Q:180
K:G
M:6/8
L:1/16
|:B2c2B2 A2G2A2|B2c2B2 A2G2A2|B4D2 E4D2|B2B2D2 E4D2|
B2c2B2 A2G2A2|B2d2B2 A2G2A2|B4D2 E4D2|G6-G4B2:|
|:d2e2d2 B2G2B2|d4d2 d6|e2f2e2 d2A2d2|e4e2e6|
d2e2d2 B2d2B2|g2f2e2 d2c2B2|d4D2 E4D2 |1G6-G4d2:|2G6-G6||
